Icons/Colored/RotateRandomDiceLeft.svg

<svg xmlns="http://www.w3.org/2000/svg" xml:space="preserve" fill-rule="evenodd" stroke-linejoin="round" stroke-miterlimit="2" clip-rule="evenodd" viewBox="0 0 64 64">
  <g id="blue">
    <path fill="#73a7c7" fill-rule="nonzero" d="M35.574 54.695s8.445-.484 14.472-3.762c4.633-2.519 7.215-7.343 7.239-10.906.058-8.336-.344-17.437-2.184-20.258-3.656-5.593-14.414-4.109-14.414-4.109V9.691l-9.949 8.336 9.949 10.317v-6.586s6.703-1.637 8.957 2.433c1.063 1.918 1.32 9.035 1.297 16.016-.023 7.816-15.191 7.59-15.191 7.59l-.176 6.898Z"/>
  </g>
  <g id="brown">
    <path fill="#893d00" d="M19.773 45.578c0-.527.426-.953.949-.953h10.766c.523 0 .949.426.949.953V56.34a.95.95 0 0 1-.949.949H20.722a.95.95 0 0 1-.949-.949V45.578Zm14.141-21.332c.927.928.941 2.43.029 3.377l-8.24 8.662a2.33 2.33 0 0 1-3.326.089l-5.533-5.419-3.437-3.169c-.82-.984.589-1.878.589-1.878l7.025 3.124c.762.096 1.53.006 2.247-.266a5.656 5.656 0 0 0 1.842-2.5l3.323-7.39 5.481 5.37ZM23.172 32.13a1.164 1.164 0 0 0 1.664-.046 1.206 1.206 0 0 0-.014-1.688 1.147 1.147 0 0 0-.842-.326 1.161 1.161 0 0 0-.825.372 1.206 1.206 0 0 0 .017 1.688Z"/>
  </g>
  <g id="orange">
    <path fill="#ffd49b" d="M27.977 10.287a2.669 2.669 0 0 1 1.312 3.535l-5.483 12.319a2.665 2.665 0 0 1-3.504 1.39L8.265 22.174a2.663 2.663 0 0 1-1.312-3.533l5.483-12.319A2.665 2.665 0 0 1 15.94 4.93l12.037 5.357Zm-12.372 1.872-.001.002a1.336 1.336 0 0 0 1.753-.697 1.348 1.348 0 1 0-1.752.695Zm3.934 10.606a1.332 1.332 0 0 0 1.747-.697 1.349 1.349 0 1 0-1.747.697Zm3.29-7.391-.001.002a1.333 1.333 0 0 0 1.748-.699c.223-.5.119-1.087-.259-1.484a1.357 1.357 0 0 0-1.472-.318 1.347 1.347 0 0 0-.016 2.499ZM12.316 19.55a1.329 1.329 0 0 0 1.751-.695 1.35 1.35 0 0 0-.258-1.483 1.35 1.35 0 0 0-2.321.922 1.35 1.35 0 0 0 .828 1.256Zm5.255-2.087a1.336 1.336 0 0 0 1.753-.697 1.349 1.349 0 1 0-1.753.697Zm.202 28.115a2.95 2.95 0 0 1 2.949-2.953h10.766a2.95 2.95 0 0 1 2.949 2.953V56.34a2.949 2.949 0 0 1-2.949 2.949H20.722a2.949 2.949 0 0 1-2.949-2.949V45.578Zm2 0V56.34a.95.95 0 0 0 .949.949h10.766a.95.95 0 0 0 .949-.949V45.578a.951.951 0 0 0-.949-.953H20.722a.951.951 0 0 0-.949.953Z"/>
  </g>
</svg>

<?xml version="1.0" encoding="UTF-8" standalone="no"?>
<!DOCTYPE svg PUBLIC "-//W3C//DTD SVG 1.1//EN" "http://www.w3.org/Graphics/SVG/1.1/DTD/svg11.dtd">
<svg width="100%" height="100%" viewBox="0 0 64 64" version="1.1" xmlns="http://www.w3.org/2000/svg" xmlns:xlink="http://www.w3.org/1999/xlink" xml:space="preserve" xmlns:serif="http://www.serif.com/" style="fill-rule:evenodd;clip-rule:evenodd;stroke-linejoin:round;stroke-miterlimit:2;">
    <g id="surface1">
        <path d="M35.574,54.695C35.574,54.695 44.019,54.211 50.046,50.933C54.679,48.414 57.261,43.59 57.285,40.027C57.343,31.691 56.941,22.59 55.101,19.769C51.445,14.176 40.687,15.66 40.687,15.66L40.687,9.691L30.738,18.027L40.687,28.344L40.687,21.758C40.687,21.758 47.39,20.121 49.644,24.191C50.707,26.109 50.964,33.226 50.941,40.207C50.918,48.023 35.75,47.797 35.75,47.797L35.574,54.695Z" style="fill:#73a7c7;fill-rule:nonzero;"/>
        <path d="M19.773,45.578C19.773,45.051 20.199,44.625 20.722,44.625L31.488,44.625C32.011,44.625 32.437,45.051 32.437,45.578L32.437,56.34C32.437,56.863 32.011,57.289 31.488,57.289L20.722,57.289C20.199,57.289 19.773,56.863 19.773,56.34L19.773,45.578Z" style="fill:#893d00;"/>
        <path d="M17.773,45.578C17.773,43.945 19.093,42.625 20.722,42.625L31.488,42.625C33.117,42.625 34.437,43.945 34.437,45.578L34.437,56.34C34.437,57.969 33.117,59.289 31.488,59.289L20.722,59.289C19.093,59.289 17.773,57.969 17.773,56.34L17.773,45.578ZM19.773,45.578L19.773,56.34C19.773,56.863 20.199,57.289 20.722,57.289L31.488,57.289C32.011,57.289 32.437,56.863 32.437,56.34L32.437,45.578C32.437,45.051 32.011,44.625 31.488,44.625L20.722,44.625C20.199,44.625 19.773,45.051 19.773,45.578Z" style="fill:#ffd49b;"/>
    </g>
    <g id="surface11" serif:id="surface1">
        <path d="M27.977,10.287L15.94,4.93C14.586,4.347 13.019,4.97 12.436,6.322L6.953,18.641C6.339,19.978 6.925,21.559 8.265,22.174L20.302,27.531C21.654,28.114 23.223,27.493 23.806,26.141L29.289,13.822C29.902,12.484 29.314,10.902 27.977,10.287M12.316,19.55C11.811,19.339 11.484,18.842 11.488,18.294C11.493,17.746 11.83,17.256 12.338,17.054C12.848,16.852 13.431,16.977 13.809,17.372C14.188,17.769 14.29,18.353 14.067,18.855C13.93,19.18 13.664,19.434 13.337,19.566C13.008,19.696 12.641,19.69 12.316,19.55M15.605,12.159C15.1,11.948 14.773,11.451 14.777,10.903C14.783,10.355 15.119,9.864 15.63,9.662C16.138,9.46 16.72,9.587 17.098,9.982C17.479,10.379 17.579,10.964 17.357,11.464C17.218,11.79 16.953,12.044 16.626,12.176C16.297,12.307 15.93,12.301 15.604,12.161L15.605,12.159M17.571,17.463C17.067,17.25 16.74,16.755 16.744,16.206C16.749,15.659 17.085,15.169 17.594,14.965C18.105,14.762 18.685,14.889 19.066,15.285C19.444,15.679 19.547,16.266 19.324,16.766C19.184,17.091 18.922,17.347 18.593,17.478C18.263,17.609 17.897,17.603 17.571,17.463M19.539,22.765C19.031,22.555 18.702,22.059 18.705,21.511C18.709,20.963 19.045,20.472 19.554,20.268C20.064,20.063 20.646,20.188 21.025,20.583C21.406,20.979 21.51,21.566 21.286,22.068C20.996,22.741 20.215,23.054 19.539,22.765M22.829,15.374C22.321,15.164 21.991,14.668 21.995,14.12C21.999,13.571 22.335,13.081 22.845,12.875C23.353,12.674 23.935,12.799 24.317,13.193C24.695,13.59 24.799,14.177 24.576,14.677C24.285,15.352 23.503,15.665 22.828,15.376L22.829,15.374" style="fill:#ffd49b;fill-rule:nonzero;"/>
        <path d="M33.914,24.246L28.433,18.876L25.11,26.266C24.741,27.255 24.104,28.12 23.268,28.766C22.551,29.038 21.783,29.128 21.021,29.032L13.996,25.908C13.996,25.908 12.587,26.802 13.407,27.786L16.844,30.955L22.377,36.374C22.826,36.809 23.433,37.045 24.06,37.028C24.684,37.012 25.278,36.742 25.703,36.285L33.943,27.623C34.855,26.676 34.841,25.174 33.914,24.246M23.172,32.13C22.708,31.665 22.7,30.914 23.155,30.442C23.369,30.212 23.665,30.077 23.98,30.07C24.293,30.058 24.596,30.177 24.822,30.396C25.285,30.861 25.292,31.61 24.836,32.084C24.623,32.313 24.328,32.448 24.013,32.458C23.7,32.466 23.396,32.348 23.172,32.13" style="fill:#893d00;fill-rule:nonzero;"/>
    </g>
</svg>
